src/assets/icons/Social/Instagram.svg

<?xml version="1.0" encoding="UTF-8"?>
<svg width="24px" height="24px" viewBox="0 0 24 24" version="1.1" xmlns="http://www.w3.org/2000/svg" xmlns:xlink="http://www.w3.org/1999/xlink">
    <!-- Generator: Sketch 61 (89581) - https://sketch.com -->
    <title>🎨 Color</title>
    <desc>Created with Sketch.</desc>
    <g id="💟-Symbols" stroke="none" stroke-width="1" fill="none" fill-rule="evenodd">
        <g id="09-Icons-/-Social-/-Instagram" fill="#000000">
            <path d="M13.1562683,0.00838085362 C15.3786146,0.0120463492 15.8333175,0.0291650794 16.9422381,0.0797619048 C18.2190952,0.138 19.0911429,0.340809524 19.8541905,0.637380952 C20.6430476,0.943904762 21.3120476,1.35409524 21.979,2.021 C22.6459048,2.68795238 23.0560952,3.35695238 23.3626667,4.14580952 C23.6591905,4.90885714 23.862,5.78090476 23.9202381,7.0577619 C23.974727,8.25198413 23.9903892,8.68746857 23.9922353,11.3891002 L23.9922353,12.61851 C23.9903892,15.3201029 23.974727,15.7555873 23.9202381,16.9498095 C23.862,18.2266667 23.6591905,19.0987143 23.3626667,19.8617619 C23.0560952,20.650619 22.6459048,21.319619 21.979,21.9865714 C21.3120476,22.6534762 20.6430476,23.0636667 19.8541905,23.3702381 C19.0911429,23.6667619 18.2190952,23.8695714 16.9422381,23.9278095 C15.7480159,23.9822984 15.3125314,23.9979606 12.6109385,23.9998068 L11.3815287,23.9998068 C8.67989714,23.9979606 8.2444127,23.9822984 7.05019048,23.9278095 C5.77333333,23.8695714 4.90128571,23.6667619 4.1382381,23.3702381 C3.34938095,23.0636667 2.68038095,22.6534762 2.01342857,21.9865714 C1.34652381,21.319619 0.936333333,20.650619 0.629809524,19.8617619 C0.333238095,19.0987143 0.130428571,18.2266667 0.0721904762,16.9498095 C0.0215936508,15.8408889 0.00447492063,15.386186 0.000809425043,13.1638397 L0.000809425043,10.8437627 C0.00447492063,8.6213854 0.0215936508,8.16668254 0.0721904762,7.0577619 C0.130428571,5.78090476 0.333238095,4.90885714 0.629809524,4.14580952 C0.936333333,3.35695238 1.34652381,2.68795238 2.01342857,2.021 C2.68038095,1.35409524 3.34938095,0.943904762 4.1382381,0.637380952 C4.90128571,0.340809524 5.77333333,0.138 7.05019048,0.0797619048 C8.15911111,0.0291650794 8.61381397,0.0120463492 10.8361913,0.00838085362 Z M12.8761659,2.169448 L11.1162974,2.169448 C8.70835429,2.17195 8.28717143,2.18705714 7.14871429,2.239 C5.97909524,2.29233333 5.34390476,2.4877619 4.92119048,2.65204762 C4.3612381,2.86966667 3.96161905,3.12961905 3.54185714,3.54942857 C3.12204762,3.96919048 2.86209524,4.36880952 2.64447619,4.9287619 C2.48019048,5.35147619 2.2847619,5.98666667 2.23142857,7.15628571 C2.17948571,8.29474286 2.16437857,8.71592571 2.16187657,11.1238689 L2.16187657,12.8837373 C2.16437857,15.2916457 2.17948571,15.7128286 2.23142857,16.8512857 C2.2847619,18.0209048 2.48019048,18.6560952 2.64447619,19.0788095 C2.86209524,19.6387619 3.12209524,20.038381 3.54185714,20.4581429 C3.96161905,20.8779524 4.3612381,21.1379048 4.92119048,21.3555238 C5.34390476,21.5198095 5.97909524,21.7152381 7.14871429,21.7685714 C8.24488254,21.8185905 8.67595979,21.8344519 10.8567086,21.8377923 L13.1357531,21.8377923 C15.3164798,21.8344519 15.7475873,21.8185905 16.8437143,21.7685714 C18.0133333,21.7152381 18.6485238,21.5198095 19.0712381,21.3555238 C19.6311905,21.1379048 20.0308095,20.8779524 20.4505714,20.4581429 C20.870381,20.038381 21.1303333,19.6387619 21.3479524,19.0788095 C21.5122381,18.6560952 21.7076667,18.0209048 21.761,16.8512857 C21.811019,15.7549937 21.8268804,15.3238284 21.8302209,13.1432442 L21.8302209,10.8643582 C21.8268804,8.68374307 21.811019,8.25257778 21.761,7.15628571 C21.7076667,5.98666667 21.5122381,5.35147619 21.3479524,4.9287619 C21.1303333,4.36880952 20.870381,3.96919048 20.4505714,3.54942857 C20.0308095,3.12961905 19.6311905,2.86966667 19.0712381,2.65204762 C18.6485238,2.4877619 18.0133333,2.29233333 16.8437143,2.239 C15.7052571,2.18705714 15.2840743,2.17195 12.8761659,2.169448 Z M11.9962381,5.84357143 C15.3984286,5.84357143 18.1564286,8.60157143 18.1564286,12.0038095 C18.1564286,15.406 15.3984286,18.164 11.9962381,18.164 C8.594,18.164 5.836,15.406 5.836,12.0038095 C5.836,8.60157143 8.594,5.84357143 11.9962381,5.84357143 Z M11.9962381,8.00504762 C9.7877619,8.00504762 7.99747619,9.79533333 7.99747619,12.0038095 C7.99747619,14.2122381 9.7877619,16.0025238 11.9962381,16.0025238 C14.2046667,16.0025238 15.9949524,14.2122381 15.9949524,12.0038095 C15.9949524,9.79533333 14.2046667,8.00504762 11.9962381,8.00504762 Z M18.3998095,4.16061905 C19.1948571,4.16061905 19.839381,4.80514286 19.839381,5.60019048 C19.839381,6.3952381 19.1948571,7.03971429 18.3998095,7.03971429 C17.6048095,7.03971429 16.9602857,6.3952381 16.9602857,5.60019048 C16.9602857,4.80514286 17.6048095,4.16061905 18.3998095,4.16061905 Z" id="🎨-Color"></path>
        </g>
    </g>
</svg>

<svg width="24" height="24" viewBox="0 0 24 24" xmlns="http://www.w3.org/2000/svg"><path d="M13.156.008c2.223.004 2.677.021 3.786.072 1.277.058 2.15.26 2.912.557a5.88 5.88 0 012.125 1.384 5.88 5.88 0 011.384 2.125c.296.763.499 1.635.557 2.912.055 1.194.07 1.63.072 4.331v1.23c-.002 2.701-.017 3.137-.072 4.33-.058 1.278-.26 2.15-.557 2.913a5.88 5.88 0 01-1.384 2.125 5.88 5.88 0 01-2.125 1.383c-.763.297-1.635.5-2.912.558-1.194.054-1.63.07-4.331.072h-1.23c-2.701-.002-3.137-.018-4.33-.072-1.278-.058-2.15-.261-2.913-.558a5.88 5.88 0 01-2.125-1.383A5.88 5.88 0 01.63 19.862c-.297-.763-.5-1.635-.558-2.912-.05-1.11-.068-1.564-.071-3.786v-2.32C.004 8.62.02 8.167.072 7.058.13 5.78.333 4.908.63 4.146A5.88 5.88 0 012.013 2.02 5.88 5.88 0 014.138.637C4.901.341 5.773.138 7.05.08 8.16.03 8.614.012 10.836.008zm-.28 2.161h-1.76c-2.408.003-2.829.018-3.967.07-1.17.053-1.805.249-2.228.413-.56.218-.96.478-1.38.897-.419.42-.679.82-.897 1.38-.164.422-.36 1.058-.413 2.227-.052 1.139-.067 1.56-.07 3.968v1.76c.003 2.408.018 2.829.07 3.967.054 1.17.25 1.805.413 2.228.218.56.478.96.898 1.38.42.419.82.679 1.38.897.422.164 1.057.36 2.227.413 1.096.05 1.527.065 3.708.069h2.279c2.18-.004 2.612-.02 3.708-.07 1.17-.053 1.805-.248 2.227-.412.56-.218.96-.478 1.38-.898.42-.42.68-.82.897-1.38.164-.422.36-1.057.413-2.227.05-1.096.066-1.527.07-3.708v-2.279c-.004-2.18-.02-2.611-.07-3.708-.053-1.17-.249-1.805-.413-2.227a3.716 3.716 0 00-.897-1.38c-.42-.42-.82-.68-1.38-.897-.422-.164-1.058-.36-2.227-.413-1.139-.052-1.56-.067-3.968-.07zm-.88 3.675a6.16 6.16 0 110 12.32 6.16 6.16 0 010-12.32zm0 2.161a3.999 3.999 0 100 7.998 3.999 3.999 0 000-7.998zM18.4 4.161a1.44 1.44 0 110 2.879 1.44 1.44 0 010-2.88z" fill="#000" fill-rule="evenodd"/></svg>
